X:1
T:The Cruel Mother
B:Marrow Bones, Ed Frank Purslow, EFDS, 1965
S:Mrs Case, Sydling St. Nicholas, Dorset, Sept 1907
Z:Hammond D.863
F:http://www.folkinfo.org/songs
M:6/8     
L:1/8     
K:Am
E |A2 B c2 B |AGA E2 z |c2 B ccd |
w:There was a la-dy lived_ in York All a-lon-ey a-
e3 d z c/d/ |e2 e dcB |cBA E3 |AAA E2 D |
w:lone-y, She was court-ed by_ her fa--ther's clerk Down by the green-wood 
E3 A2 z |]
w:side-y